X: 305548
T: WITHIN A MILE OF EDINBURGH
C:
%R: hornpipe, reel
B: Elias Howe "The Musician's Companion" Part 3 1844 p.57 #4
S: http://imslp.org/wiki/The_Musician's_Companion_(Howe,_Elias)
S: https://archive.org/stream/firstthirdpartof03howe/#page/66/mode/1up
Z: 2015 John Chambers <jc:trillian.mit.edu>
N: The 2nd strain has only 5 bars.
M: 2/4
L: 1/16
K: G
% - - - - - - - - - - - - - - - - - - - - - - - - -
B>c |\
d>BA>B G2B>G | E>GD>B, D2G>A |\
B>de>g d>BA>B | B2A2 z2B>c |\
d>BA>B G2B>G | E>GD>B, D2G>A |\
(B>d)(e>g) d>BA>B | G2G2G2 :|
|: B,>D |\
G>AB>c dBgG | GAGE DB,DG |\
BGBd (e>f)g>e | (dB)(BG) E>GD>G |\
B>dA>B G2 :|
% - - - - - - - - - - - - - - - - - - - - - - - - -


